X: 42
T:Johnny's Gone to France
% Nottingham Music Database
S:FTB, via EF
M:4/4
L:1/4
K:Em
G/2A/2|:"Em"B/2E/2E/2d/2 BA/2G/2|"D"F/2D/2A/2D/2 F/2D/2A/2D/2|\
"Em"B/2E/2E/2d/2 BA/2G/2|"D"F/2D/2A/2F/2 "Em"EE:|
"Em"B/2d/2e/2f/2 g/2f/2e/2d/2|"G"B/2d/2"D"A/2d/2 "G"B/2d/2"D"A/2d/2|\
"Em"B/2d/2e/2f/2 g/2f/2e/2d/2|"G"B/2d/2"D"A/2F/2 "Em"EE:|


